X:1
T:Title
%%score { ( 1 3 ) | ( 2 4 ) }
L:1/8
M:4/4
K:Eb
V:1 treble nm="Grand Piano"
V:3 treble 
V:2 bass 
V:4 bass 
V:1
 z4 z2[Q:1/4=100] EF | GG[EG]F F<E G[FA] |[M:3/4] [GB][_G=A] [_Ac]=G B2 |[M:1/4] G[GB] | %4
[M:4/4] e4 B2 z2 | B4 G2 z2 | EEEE D<E FG |[M:3/4] F6 |[M:1/4] EF |[M:4/4] GG[EG]F F<E G[FA] | %10
[M:3/4] [GB][_G=A] [_Ac]=G B2 |[M:1/4] G[GB] |[M:4/4] e-[Ge-][Ge-][Ge] B-[GB] z2 | %13
 B-[GB-][GB-][GB] z E z2 | EEEE D<E FG | E6 z2 | B4 G2 z2 | e-[Ge-][Ge-][Ge] B-[GB] z2 | %18
 GGGG =A<A Bc |[M:3/4] B6 |[M:1/4] G[GB] |[M:4/4] e4 B2 z2 | B4 G2 z2 | EEEE D<E FG | %24
[M:8/4] E8 z8 |] %25
V:2
 z4 z2 [E,G,][E,A,E] | [E,B,E][E,B,E][B,,B,][B,,A,B,] [E,A,B,]<[E,G,B,] [E,B,E][E,B,] | %2
[M:3/4] [E,E][E,E] [E,E][E,B,E] [E,G,E]2 |[M:1/4] [E,B,E][E,E] | %4
[M:4/4] [E,B,][E,B,][E,B,][E,B,] [E,E][E,E] z2 | [E,E][E,E][E,E][E,E] [E,B,E][E,B,] z2 | %6
 [E,G,B,][E,G,B,][E,G,B,][E,G,B,] [F,A,B,]<[E,G,B,] [B,,A,B,][B,,B,] |[M:3/4] [B,,A,B,]6 | %8
[M:1/4] [E,G,][E,A,E] |[M:4/4] [E,B,E][E,B,E][B,,B,][B,,A,B,] [E,A,B,]<[E,G,B,] [E,B,E][E,B,] | %10
[M:3/4] [E,E][E,E] [E,E][E,B,E] [E,G,E]2 |[M:1/4] [E,B,E][E,E] | %12
[M:4/4] [E,B,][E,B,][E,B,][E,B,] [E,E][E,E] z2 | [E,E][E,E][E,E][E,E] [E,B,E][E,B,] z2 | %14
 [B,,G,B,][B,,G,B,][B,,G,B,][B,,G,B,] [B,,F,B,]<[B,,G,B,] [B,,A,B,][B,,B,] | [E,G,B,]6 z2 | %16
 [E,G,E][E,G,][E,G,][E,G,] [E,B,E][E,B,] z2 | [E,B,][E,B,][E,B,][E,B,] [E,E][E,E] z2 | %18
 [E,B,E][E,B,E][E,CE][E,CE] [F,CE]<[F,CE] [F,B,D][F,=A,E] |[M:3/4] z A, CB, A,F, | %20
[M:1/4] [E,B,E][E,E] |[M:4/4] [E,B,][E,B,][E,B,][E,B,] [E,E][E,E] z2 | %22
 [E,E][E,E][E,E][E,E] [E,B,E][E,B,] z2 | %23
 [B,,G,B,][B,,G,B,][B,,G,B,][B,,G,B,] [B,,F,B,]<[B,,G,B,] [B,,A,B,][B,,B,] |[M:8/4] [E,G,B,]8 z8 |] %25
V:3
 x8 | x8 |[M:3/4] x6 |[M:1/4] x2 |[M:4/4] GGGG GG z2 | GGGG z E z2 | x8 |[M:3/4] x6 |[M:1/4] x2 | %9
[M:4/4] x8 |[M:3/4] x6 |[M:1/4] x2 |[M:4/4] .G2 z2 .G2 z2 | .G2 z2 G2 z2 | x8 | x8 | z EEE z E z2 | %17
 .G2 z2 .G2 z2 | x8 |[M:3/4] [B,D]F AG FD |[M:1/4] x2 |[M:4/4] GGGG GG z2 | GGGG z E z2 | x8 | %24
[M:8/4] x16 |] %25
V:4
 x8 | x8 |[M:3/4] x6 |[M:1/4] x2 |[M:4/4] x8 | x8 | x8 |[M:3/4] x6 |[M:1/4] x2 |[M:4/4] x8 | %10
[M:3/4] x6 |[M:1/4] x2 |[M:4/4] x8 | x8 | x8 | x8 | x8 | x8 | x8 |[M:3/4] B,,6 |[M:1/4] x2 | %21
[M:4/4] x8 | x8 | x8 |[M:8/4] x16 |] %25

